weallcode/static/weallcode/images/companies/google.svg

<svg height="51" viewBox="0 0 157 51" width="157" xmlns="http://www.w3.org/2000/svg"><g fill="#fff" fill-opacity=".4" fill-rule="evenodd"><path d="m38.4104389 18.0218627h-18.2300665v5.3890942h12.9290065c-.6387169 7.5569774-6.9498512 10.7797464-12.9071123 10.7797464-7.621691 0-14.27252969-5.9741033-14.27252969-14.3474449 0-8.1569427 6.33994079-14.4388963 14.28926319-14.4388963 6.1330404 0 9.7469943 3.89486731 9.7469943 3.89486731l3.7877002-3.90748668s-4.8616117-5.39174273-13.728302-5.39174273c-11.29069323-.00015579-20.0253926 9.49303801-20.0253926 19.7469773 0 10.0476671 8.21643188 19.845128 20.3131452 19.845128 10.6391838 0 18.4271145-7.2606559 18.4271145-17.9974029 0-2.2650991-.3301179-3.5742419-.3301179-3.5742419z"/><g fill-rule="nonzero"><path d="m53.7046041 14.0921053c-7.5294045 0-12.9253833 5.8373889-12.9253833 12.6454124 0 6.9087086 5.2338428 12.8545876 13.0138497 12.8545876 7.0429967 0 12.8129901-5.3381786 12.8129901-12.7061357 0-8.4447403-6.7117986-12.7938643-12.9014565-12.7938643zm.0748706 5.0081815c3.7026814 0 7.2114292 2.9685686 7.2114292 7.751965 0 4.6819309-3.4937936 7.7351062-7.2284298 7.7351062-4.1034562 0-7.3406657-3.2590722-7.3406657-7.7722582 0-4.4164034 3.197069-7.714813 7.3576663-7.714813z"/><path d="m81.570405 14.0921053c-7.5294046 0-12.9253834 5.8373889-12.9253834 12.6454124 0 6.9087086 5.2338429 12.8545876 13.0138498 12.8545876 7.0429967 0 12.8129901-5.3381786 12.8129901-12.7061357 0-8.4447403-6.7117986-12.7938643-12.9014565-12.7938643zm.074869 5.0081815c3.7026814 0 7.2114292 2.9685686 7.2114292 7.751965 0 4.6819309-3.4937936 7.7351062-7.2284298 7.7351062-4.1034563 0-7.3406657-3.2590722-7.3406657-7.7722582 0-4.4164034 3.197069-7.714813 7.3576663-7.714813z"/><path d="m109.434314 14.0921053c-6.855325 0-12.2438378 5.9923124-12.2438378 12.7181388 0 7.6613023 6.2471458 12.7418258 12.1256368 12.7418258 3.634865 0 5.567609-1.4399907 6.994605-3.0928517v2.509874c0 4.3914224-2.671616 7.0211333-6.704178 7.0211333-3.895625 0-5.849604-2.8908899-6.528673-4.531362l-4.9015007 2.045019c1.7388142 3.6694402 5.2392397 7.4961175 11.4707707 7.4961175 6.815977 0 12.010872-4.2846756 12.010872-13.2707288v-22.8718616h-5.347135v2.1561291c-1.644191-1.7682565-3.892658-2.9211218-6.87656-2.9211218zm.496224 4.989516c3.360989 0 6.812229 2.8642421 6.812229 7.7555823 0 4.9717508-3.443901 7.7117927-6.886554 7.7117927-3.654695 0-7.055344-2.9616389-7.055344-7.6645748 0-4.8866651 3.53181-7.8028002 7.129513-7.8028002z"/><path d="m145.310675 14.0921053c-6.576575 0-12.098554 5.1380794-12.098554 12.7196705 0 8.0224211 6.154959 12.7803295 12.730264 12.7803295 5.487837 0 8.856001-2.9481193 10.866101-5.5895132l-4.483739-2.929563c-1.163502 1.7731442-3.108684 3.5060571-6.35489 3.5060571-3.646383 0-5.323001-1.9607348-6.361717-3.860031l17.39186-7.0863394-.902925-2.0767509c-1.680112-4.0668016-5.599315-7.46308-10.785749-7.46308zm.226577 4.8984064c2.369784 0 4.075304 1.2372246 4.799595 2.7206092l-11.61453 4.7669526c-.50073-3.6905289 3.059932-7.4875618 6.814935-7.4875618z"/></g><path d="m125.735931 38.9210526h5.437229v-37.57894734h-5.437229z"/></g></svg>

<?xml version="1.0" encoding="UTF-8"?>
<svg width="157px" height="51px" viewBox="0 0 157 51" version="1.1" xmlns="http://www.w3.org/2000/svg" xmlns:xlink="http://www.w3.org/1999/xlink">
    <!-- Generator: Sketch 52.6 (67491) - http://www.bohemiancoding.com/sketch -->
    <title>Google_2015_logo1</title>
    <desc>Created with Sketch.</desc>
    <g id="Page-1" stroke="none" stroke-width="1" fill="none" fill-rule="evenodd" fill-opacity="0.4">
        <g id="Desktop" transform="translate(-80.000000, -3370.000000)" fill="#FFFFFF">
            <g id="Group-26" transform="translate(-29.000000, 3294.000000)">
                <g id="Group-25" transform="translate(109.000000, 63.000000)">
                    <g id="Google_2015_logo1" transform="translate(0.000000, 13.000000)">
                        <path d="M38.4104389,18.0218627 L20.1803724,18.0218627 L20.1803724,23.4109569 L33.1093789,23.4109569 C32.470662,30.9679343 26.1595277,34.1907033 20.2022666,34.1907033 C12.5805756,34.1907033 5.92973691,28.2166 5.92973691,19.8432584 C5.92973691,11.6863157 12.2696777,5.4043621 20.2190001,5.4043621 C26.3520405,5.4043621 29.9659944,9.29922941 29.9659944,9.29922941 L33.7536946,5.39174273 C33.7536946,5.39174273 28.8920829,0 20.0253926,0 C8.73469937,-0.000155794693 0,9.49303801 0,19.7469773 C0,29.7946444 8.21643188,39.5921053 20.3131452,39.5921053 C30.952329,39.5921053 38.7402597,32.3314494 38.7402597,21.5947024 C38.7402597,19.3296033 38.4101418,18.0204605 38.4101418,18.0204605 L38.4104389,18.0218627 Z" id="path2998"></path>
                        <path d="M53.7046041,14.0921053 C46.1751996,14.0921053 40.7792208,19.9294942 40.7792208,26.7375177 C40.7792208,33.6462263 46.0130636,39.5921053 53.7930705,39.5921053 C60.8360672,39.5921053 66.6060606,34.2539267 66.6060606,26.8859696 C66.6060606,18.4412293 59.894262,14.0921053 53.7046041,14.0921053 Z M53.7794747,19.1002868 C57.4821561,19.1002868 60.9909039,22.0688554 60.9909039,26.8522518 C60.9909039,31.5341827 57.4971103,34.587358 53.7624741,34.587358 C49.6590179,34.587358 46.4218084,31.3282858 46.4218084,26.8150998 C46.4218084,22.3986964 49.6188774,19.1002868 53.7794747,19.1002868 Z" id="path3000" fill-rule="nonzero"></path>
                        <path d="M81.570405,14.0921053 C74.0410004,14.0921053 68.6450216,19.9294942 68.6450216,26.7375177 C68.6450216,33.6462263 73.8788645,39.5921053 81.6588714,39.5921053 C88.7018681,39.5921053 94.4718615,34.2539267 94.4718615,26.8859696 C94.4718615,18.4412293 87.7600629,14.0921053 81.570405,14.0921053 Z M81.645274,19.1002868 C85.3479554,19.1002868 88.8567032,22.0688554 88.8567032,26.8522518 C88.8567032,31.5341827 85.3629096,34.587358 81.6282734,34.587358 C77.5248171,34.587358 74.2876077,31.3282858 74.2876077,26.8150998 C74.2876077,22.3986964 77.4846767,19.1002868 81.645274,19.1002868 Z" id="path3005" fill-rule="nonzero"></path>
                        <path d="M109.434314,14.0921053 C102.578989,14.0921053 97.1904762,20.0844177 97.1904762,26.8102441 C97.1904762,34.4715464 103.437622,39.5520699 109.316113,39.5520699 C112.950978,39.5520699 114.883722,38.1120792 116.310718,36.4592182 L116.310718,38.9690922 C116.310718,43.3605146 113.639102,45.9902255 109.60654,45.9902255 C105.710915,45.9902255 103.756936,43.0993356 103.077867,41.4588635 L98.1763663,43.5038825 C99.9151805,47.1733227 103.415606,51 109.647137,51 C116.463114,51 121.658009,46.7153244 121.658009,37.7292712 L121.658009,14.8574096 L116.310874,14.8574096 L116.310874,17.0135387 C114.666683,15.2452822 112.418216,14.0924169 109.434314,14.0924169 L109.434314,14.0921053 Z M109.930538,19.0816213 C113.291527,19.0816213 116.742767,21.9458634 116.742767,26.8372036 C116.742767,31.8089544 113.298866,34.5489963 109.856213,34.5489963 C106.201518,34.5489963 102.800869,31.5873574 102.800869,26.8844215 C102.800869,21.9977564 106.332679,19.0816213 109.930382,19.0816213 L109.930538,19.0816213 Z" id="path3007" fill-rule="nonzero"></path>
                        <path d="M145.310675,14.0921053 C138.7341,14.0921053 133.212121,19.2301847 133.212121,26.8117758 C133.212121,34.8341969 139.36708,39.5921053 145.942385,39.5921053 C151.430222,39.5921053 154.798386,36.643986 156.808486,34.0025921 L152.324747,31.0730291 C151.161245,32.8461733 149.216063,34.5790862 145.969857,34.5790862 C142.323474,34.5790862 140.646856,32.6183514 139.60814,30.7190552 L157,23.6327158 L156.097075,21.5559649 C154.416963,17.4891633 150.49776,14.0928849 145.311326,14.0928849 L145.310675,14.0921053 Z M145.537252,18.9905117 C147.907036,18.9905117 149.612556,20.2277363 150.336847,21.7111209 L138.722317,26.4780735 C138.221587,22.7875446 141.782249,18.9905117 145.537252,18.9905117 Z" id="path3011" fill-rule="nonzero"></path>
                        <polygon id="path3015" points="125.735931 38.9210526 131.17316 38.9210526 131.17316 1.34210526 125.735931 1.34210526"></polygon>
                    </g>
                </g>
            </g>
        </g>
    </g>
</svg>
